X:134
T:Rising of the year 1715, The
T:Tha tighinn fodhan \'Eiridh
R:Strathspey
S:Simon Fraser Collection
N:No.225
O:Scottish
M:C
L:1/8
K:E_
B,<E E>D E>C E<B,|C<F ~F>G A>GFE|G<B ~B>c B<a g>f|e>c B>G F2E2:|
|:G<E E>F E>C B,<E|C<F ~F>G F>E C<E|B,>CE>d e>d c<e|B<G e>G F2E2:|

